images/visualize3.svg

<svg width="161" height="311" viewBox="0 0 161 311" fill="none" xmlns="http://www.w3.org/2000/svg">
<rect width="161" height="311" fill="white"/>
<rect width="161" height="116" rx="6" fill="white"/>
<g opacity="0.82">
<path d="M52.082 77.9688H53.8867C54.7461 77.9688 55.3828 77.7539 55.7969 77.3242C56.2109 76.8945 56.418 76.3242 56.418 75.6133C56.418 74.9258 56.2109 74.3906 55.7969 74.0078C55.3906 73.625 54.8281 73.4336 54.1094 73.4336C53.4609 73.4336 52.918 73.6133 52.4805 73.9727C52.043 74.3242 51.8242 74.7852 51.8242 75.3555H48.4375C48.4375 74.4648 48.6758 73.668 49.1523 72.9648C49.6367 72.2539 50.3086 71.6992 51.168 71.3008C52.0352 70.9023 52.9883 70.7031 54.0273 70.7031C55.832 70.7031 57.2461 71.1367 58.2695 72.0039C59.293 72.8633 59.8047 74.0508 59.8047 75.5664C59.8047 76.3477 59.5664 77.0664 59.0898 77.7227C58.6133 78.3789 57.9883 78.8828 57.2148 79.2344C58.1758 79.5781 58.8906 80.0938 59.3594 80.7812C59.8359 81.4688 60.0742 82.2812 60.0742 83.2188C60.0742 84.7344 59.5195 85.9492 58.4102 86.8633C57.3086 87.7773 55.8477 88.2344 54.0273 88.2344C52.3242 88.2344 50.9297 87.7852 49.8438 86.8867C48.7656 85.9883 48.2266 84.8008 48.2266 83.3242H51.6133C51.6133 83.9648 51.8516 84.4883 52.3281 84.8945C52.8125 85.3008 53.4062 85.5039 54.1094 85.5039C54.9141 85.5039 55.543 85.293 55.9961 84.8711C56.457 84.4414 56.6875 83.875 56.6875 83.1719C56.6875 81.4688 55.75 80.6172 53.875 80.6172H52.082V77.9688Z" fill="black"/>
<path d="M74.0195 72.8359L67.4219 88H63.8477L70.457 73.6797H61.9727V70.9375H74.0195V72.8359Z" fill="black"/>
<path d="M76.5156 86.3359C76.5156 85.7969 76.6953 85.3594 77.0547 85.0234C77.4219 84.6875 77.8789 84.5195 78.4258 84.5195C78.9805 84.5195 79.4375 84.6875 79.7969 85.0234C80.1641 85.3594 80.3477 85.7969 80.3477 86.3359C80.3477 86.8672 80.168 87.3008 79.8086 87.6367C79.4492 87.9648 78.9883 88.1289 78.4258 88.1289C77.8711 88.1289 77.4141 87.9648 77.0547 87.6367C76.6953 87.3008 76.5156 86.8672 76.5156 86.3359Z" fill="black"/>
<path d="M94.3047 75.4727C94.3047 76.3008 94.0977 77.0352 93.6836 77.6758C93.2695 78.3164 92.6992 78.8281 91.9727 79.2109C92.8008 79.6094 93.457 80.1602 93.9414 80.8633C94.4258 81.5586 94.668 82.3789 94.668 83.3242C94.668 84.8398 94.1523 86.0391 93.1211 86.9219C92.0898 87.7969 90.6875 88.2344 88.9141 88.2344C87.1406 88.2344 85.7344 87.793 84.6953 86.9102C83.6562 86.0273 83.1367 84.832 83.1367 83.3242C83.1367 82.3789 83.3789 81.5547 83.8633 80.8516C84.3477 80.1484 85 79.6016 85.8203 79.2109C85.0938 78.8281 84.5234 78.3164 84.1094 77.6758C83.7031 77.0352 83.5 76.3008 83.5 75.4727C83.5 74.0195 83.9844 72.8633 84.9531 72.0039C85.9219 71.1367 87.2383 70.7031 88.9023 70.7031C90.5586 70.7031 91.8711 71.1328 92.8398 71.9922C93.8164 72.8438 94.3047 74.0039 94.3047 75.4727ZM91.2695 83.0781C91.2695 82.3359 91.0547 81.7422 90.625 81.2969C90.1953 80.8516 89.6172 80.6289 88.8906 80.6289C88.1719 80.6289 87.5977 80.8516 87.168 81.2969C86.7383 81.7344 86.5234 82.3281 86.5234 83.0781C86.5234 83.8047 86.7344 84.3906 87.1562 84.8359C87.5781 85.2812 88.1641 85.5039 88.9141 85.5039C89.6484 85.5039 90.2227 85.2891 90.6367 84.8594C91.0586 84.4297 91.2695 83.8359 91.2695 83.0781ZM90.918 75.6367C90.918 74.9727 90.7422 74.4414 90.3906 74.043C90.0391 73.6367 89.543 73.4336 88.9023 73.4336C88.2695 73.4336 87.7773 73.6289 87.4258 74.0195C87.0742 74.4102 86.8984 74.9492 86.8984 75.6367C86.8984 76.3164 87.0742 76.8633 87.4258 77.2773C87.7773 77.6914 88.2734 77.8984 88.9141 77.8984C89.5547 77.8984 90.0469 77.6914 90.3906 77.2773C90.7422 76.8633 90.918 76.3164 90.918 75.6367Z" fill="black"/>
<path d="M96.918 74.2188C96.918 73.1719 97.2578 72.3242 97.9375 71.6758C98.6172 71.0195 99.5078 70.6914 100.609 70.6914C101.727 70.6914 102.625 71.0156 103.305 71.6641C103.984 72.3047 104.324 73.1758 104.324 74.2773V75.1211C104.324 76.1758 103.984 77.0234 103.305 77.6641C102.625 78.3047 101.734 78.625 100.633 78.625C99.5234 78.625 98.625 78.3047 97.9375 77.6641C97.2578 77.0156 96.918 76.1445 96.918 75.0508V74.2188ZM99.168 75.1211C99.168 75.5898 99.3008 75.9688 99.5664 76.2578C99.8398 76.5391 100.195 76.6797 100.633 76.6797C101.07 76.6797 101.418 76.5352 101.676 76.2461C101.934 75.957 102.062 75.5703 102.062 75.0859V74.2188C102.062 73.75 101.934 73.3711 101.676 73.082C101.418 72.793 101.062 72.6484 100.609 72.6484C100.18 72.6484 99.832 72.793 99.5664 73.082C99.3008 73.3633 99.168 73.7578 99.168 74.2656V75.1211ZM105.074 83.8164C105.074 82.7617 105.418 81.9141 106.105 81.2734C106.793 80.625 107.684 80.3008 108.777 80.3008C109.887 80.3008 110.781 80.6211 111.461 81.2617C112.148 81.8945 112.492 82.7695 112.492 83.8867V84.7305C112.492 85.7773 112.156 86.625 111.484 87.2734C110.812 87.9141 109.918 88.2344 108.801 88.2344C107.676 88.2344 106.773 87.9102 106.094 87.2617C105.414 86.6133 105.074 85.7539 105.074 84.6836V83.8164ZM107.324 84.7305C107.324 85.1602 107.465 85.5273 107.746 85.832C108.027 86.1367 108.379 86.2891 108.801 86.2891C109.754 86.2891 110.23 85.7617 110.23 84.707V83.8164C110.23 83.3477 110.098 82.9727 109.832 82.6914C109.566 82.4023 109.215 82.2578 108.777 82.2578C108.34 82.2578 107.988 82.4023 107.723 82.6914C107.457 82.9727 107.324 83.3594 107.324 83.8516V84.7305ZM101.301 86.7227L99.6484 85.832L107.98 72.4961L109.633 73.3867L101.301 86.7227Z" fill="black"/>
</g>
<g opacity="0.82">
<path d="M47.1758 54H44.9141V46.1133H36.3125V54H34.0625V36.9375H36.3125V44.2734H44.9141V36.9375H47.1758V54Z" fill="black"/>
<path d="M58.6602 52.7461C57.8164 53.7383 56.5781 54.2344 54.9453 54.2344C53.5938 54.2344 52.5625 53.8438 51.8516 53.0625C51.1484 52.2734 50.793 51.1094 50.7852 49.5703V41.3203H52.9531V49.5117C52.9531 51.4336 53.7344 52.3945 55.2969 52.3945C56.9531 52.3945 58.0547 51.7773 58.6016 50.543V41.3203H60.7695V54H58.707L58.6602 52.7461Z" fill="black"/>
<path d="M66.1133 41.3203L66.1719 42.7266C67.1016 41.6328 68.3555 41.0859 69.9336 41.0859C71.707 41.0859 72.9141 41.7656 73.5547 43.125C73.9766 42.5156 74.5234 42.0234 75.1953 41.6484C75.875 41.2734 76.6758 41.0859 77.5977 41.0859C80.3789 41.0859 81.793 42.5586 81.8398 45.5039V54H79.6719V45.6328C79.6719 44.7266 79.4648 44.0508 79.0508 43.6055C78.6367 43.1523 77.9414 42.9258 76.9648 42.9258C76.1602 42.9258 75.4922 43.168 74.9609 43.6523C74.4297 44.1289 74.1211 44.7734 74.0352 45.5859V54H71.8555V45.6914C71.8555 43.8477 70.9531 42.9258 69.1484 42.9258C67.7266 42.9258 66.7539 43.5312 66.2305 44.7422V54H64.0625V41.3203H66.1133Z" fill="black"/>
<path d="M87.4766 54H85.3086V41.3203H87.4766V54ZM85.1328 37.957C85.1328 37.6055 85.2383 37.3086 85.4492 37.0664C85.668 36.8242 85.9883 36.7031 86.4102 36.7031C86.832 36.7031 87.1523 36.8242 87.3711 37.0664C87.5898 37.3086 87.6992 37.6055 87.6992 37.957C87.6992 38.3086 87.5898 38.6016 87.3711 38.8359C87.1523 39.0703 86.832 39.1875 86.4102 39.1875C85.9883 39.1875 85.668 39.0703 85.4492 38.8359C85.2383 38.6016 85.1328 38.3086 85.1328 37.957Z" fill="black"/>
<path d="M90.4297 47.5547C90.4297 45.6094 90.8906 44.0469 91.8125 42.8672C92.7344 41.6797 93.9414 41.0859 95.4336 41.0859C96.918 41.0859 98.0938 41.5938 98.9609 42.6094V36H101.129V54H99.1367L99.0312 52.6406C98.1641 53.7031 96.957 54.2344 95.4102 54.2344C93.9414 54.2344 92.7422 53.6328 91.8125 52.4297C90.8906 51.2266 90.4297 49.6562 90.4297 47.7188V47.5547ZM92.5977 47.8008C92.5977 49.2383 92.8945 50.3633 93.4883 51.1758C94.082 51.9883 94.9023 52.3945 95.9492 52.3945C97.3242 52.3945 98.3281 51.7773 98.9609 50.543V44.7188C98.3125 43.5234 97.3164 42.9258 95.9727 42.9258C94.9102 42.9258 94.082 43.3359 93.4883 44.1562C92.8945 44.9766 92.5977 46.1914 92.5977 47.8008Z" fill="black"/>
<path d="M106.859 54H104.691V41.3203H106.859V54ZM104.516 37.957C104.516 37.6055 104.621 37.3086 104.832 37.0664C105.051 36.8242 105.371 36.7031 105.793 36.7031C106.215 36.7031 106.535 36.8242 106.754 37.0664C106.973 37.3086 107.082 37.6055 107.082 37.957C107.082 38.3086 106.973 38.6016 106.754 38.8359C106.535 39.0703 106.215 39.1875 105.793 39.1875C105.371 39.1875 105.051 39.0703 104.832 38.8359C104.621 38.6016 104.516 38.3086 104.516 37.957Z" fill="black"/>
<path d="M113.281 38.25V41.3203H115.648V42.9961H113.281V50.8594C113.281 51.3672 113.387 51.75 113.598 52.0078C113.809 52.2578 114.168 52.3828 114.676 52.3828C114.926 52.3828 115.27 52.3359 115.707 52.2422V54C115.137 54.1562 114.582 54.2344 114.043 54.2344C113.074 54.2344 112.344 53.9414 111.852 53.3555C111.359 52.7695 111.113 51.9375 111.113 50.8594V42.9961H108.805V41.3203H111.113V38.25H113.281Z" fill="black"/>
<path d="M122.34 50.8242L125.293 41.3203H127.613L122.516 55.957C121.727 58.0664 120.473 59.1211 118.754 59.1211L118.344 59.0859L117.535 58.9336V57.1758L118.121 57.2227C118.855 57.2227 119.426 57.0742 119.832 56.7773C120.246 56.4805 120.586 55.9375 120.852 55.1484L121.332 53.8594L116.809 41.3203H119.176L122.34 50.8242Z" fill="black"/>
</g>
<path d="M46 113H115V115H46V113Z" fill="#E0E1E2"/>
<path d="M46 117H115V119H46V117Z" fill="#E0E1E2"/>
<path d="M46 121H115V123H46V121Z" fill="#E0E1E2"/>
<path d="M46 125H115V127H46V125Z" fill="#E0E1E2"/>
<path d="M46 129H115V131H46V129Z" fill="#E0E1E2"/>
<path d="M46 133H115V135H46V133Z" fill="#E0E1E2"/>
<path d="M46 137H115V139H46V137Z" fill="#E0E1E2"/>
<path d="M46 141H115V143H46V141Z" fill="#E0E1E2"/>
<path d="M46 145H115V147H46V145Z" fill="#E0E1E2"/>
<path d="M46 149H115V151H46V149Z" fill="#E0E1E2"/>
<path d="M46 153H115V155H46V153Z" fill="#E0E1E2"/>
<path d="M46 157H115V159H46V157Z" fill="#E0E1E2"/>
<path d="M46 161H115V163H46V161Z" fill="#E0E1E2"/>
<path d="M46 165H115V167H46V165Z" fill="#E0E1E2"/>
<path d="M46 169H115V171H46V169Z" fill="#E0E1E2"/>
<path d="M46 173H115V175H46V173Z" fill="#E0E1E2"/>
<path d="M46 177H115V179H46V177Z" fill="#E0E1E2"/>
<path d="M46 181H115V183H46V181Z" fill="#E0E1E2"/>
<path d="M46 185H115V187H46V185Z" fill="#E0E1E2"/>
<path d="M46 189H115V191H46V189Z" fill="#E0E1E2"/>
<path d="M46 193H115V195H46V193Z" fill="#E0E1E2"/>
<path d="M46 197H115V199H46V197Z" fill="#E0E1E2"/>
<path d="M46 201H115V203H46V201Z" fill="#E0E1E2"/>
<path d="M46 205H115V207H46V205Z" fill="#E0E1E2"/>
<path d="M46 209H115V211H46V209Z" fill="#E0E1E2"/>
<path d="M46 213H115V215H46V213Z" fill="#2A7DEC"/>
<path d="M46 217H115V219H46V217Z" fill="#2A7DEC"/>
<path d="M46 221H115V223H46V221Z" fill="#2A7DEC"/>
<path d="M46 225H115V227H46V225Z" fill="#2A7DEC"/>
<path d="M46 229H115V231H46V229Z" fill="#2A7DEC"/>
<path d="M46 233H115V235H46V233Z" fill="#2A7DEC"/>
<path d="M46 237H115V239H46V237Z" fill="#2A7DEC"/>
<path d="M46 241H115V243H46V241Z" fill="#2A7DEC"/>
<path d="M46 245H115V247H46V245Z" fill="#2A7DEC"/>
<path d="M46 249H115V251H46V249Z" fill="#2A7DEC"/>
<path d="M46 253H115V255H46V253Z" fill="#2A7DEC"/>
<path d="M46 257H115V259H46V257Z" fill="#2A7DEC"/>
<path d="M46 261H115V263H46V261Z" fill="#2A7DEC"/>
<path d="M46 265H115V267H46V265Z" fill="#2A7DEC"/>
<path d="M46 269H115V271H46V269Z" fill="#2A7DEC"/>
<path d="M46 273H115V275H46V273Z" fill="#2A7DEC"/>
<path d="M46 277H115V279H46V277Z" fill="#2A7DEC"/>
</svg>

<svg width="161" height="311" fill="none" xmlns="http://www.w3.org/2000/svg"><path fill="#fff" d="M0 0h161v311H0z"/><rect width="161" height="116" rx="6" fill="#fff"/><g opacity=".82" fill="#000"><path d="M52.082 77.969h1.805c.86 0 1.496-.215 1.91-.645.414-.43.621-1 .621-1.71 0-.688-.207-1.223-.621-1.606-.406-.383-.969-.574-1.688-.574-.648 0-1.191.18-1.629.539-.437.351-.656.812-.656 1.383h-3.386c0-.891.238-1.688.714-2.391.485-.711 1.157-1.266 2.016-1.664.867-.399 1.82-.598 2.86-.598 1.804 0 3.218.434 4.242 1.3 1.023.86 1.535 2.048 1.535 3.563 0 .782-.239 1.5-.715 2.157a4.644 4.644 0 0 1-1.875 1.511c.96.344 1.676.86 2.144 1.547.477.688.715 1.5.715 2.438 0 1.515-.554 2.73-1.664 3.644-1.101.914-2.562 1.371-4.383 1.371-1.703 0-3.097-.449-4.183-1.347-1.078-.899-1.617-2.086-1.617-3.563h3.386c0 .64.239 1.164.715 1.57.484.407 1.078.61 1.781.61.805 0 1.434-.211 1.887-.633.461-.43.691-.996.691-1.7 0-1.702-.937-2.554-2.812-2.554h-1.793V77.97ZM74.02 72.836 67.421 88h-3.574l6.609-14.32h-8.484v-2.743h12.046v1.899ZM76.516 86.336c0-.54.18-.977.539-1.313.367-.335.824-.504 1.37-.504.556 0 1.013.168 1.372.504.367.336.55.774.55 1.313 0 .531-.179.965-.538 1.3-.36.329-.82.493-1.383.493-.555 0-1.012-.164-1.371-.492-.36-.336-.54-.77-.54-1.301ZM94.305 75.473c0 .828-.207 1.562-.621 2.203-.415.64-.985 1.152-1.711 1.535.828.398 1.484.95 1.968 1.652.485.696.727 1.516.727 2.461 0 1.516-.516 2.715-1.547 3.598-1.031.875-2.433 1.312-4.207 1.312-1.773 0-3.18-.441-4.219-1.324-1.039-.883-1.558-2.078-1.558-3.586 0-.945.242-1.77.726-2.472.485-.704 1.137-1.25 1.957-1.641-.726-.383-1.297-.895-1.71-1.535-.407-.64-.61-1.375-.61-2.203 0-1.454.484-2.61 1.453-3.47.969-.866 2.285-1.3 3.95-1.3 1.656 0 2.968.43 3.937 1.29.976.85 1.465 2.01 1.465 3.48Zm-3.036 7.605c0-.742-.214-1.336-.644-1.781-.43-.445-1.008-.668-1.734-.668-.72 0-1.293.223-1.723.668-.43.437-.645 1.031-.645 1.781 0 .727.211 1.313.633 1.758.422.445 1.008.668 1.758.668.734 0 1.309-.215 1.723-.645.422-.43.632-1.023.632-1.78Zm-.351-7.441c0-.664-.176-1.196-.527-1.594-.352-.406-.848-.61-1.489-.61-.633 0-1.125.196-1.476.586-.352.391-.528.93-.528 1.618 0 .68.176 1.226.528 1.64.351.414.847.621 1.488.621.64 0 1.133-.207 1.477-.62.351-.415.527-.962.527-1.641ZM96.918 74.219c0-1.047.34-1.895 1.02-2.543.68-.657 1.57-.985 2.671-.985 1.118 0 2.016.325 2.696.973.679.64 1.019 1.512 1.019 2.613v.844c0 1.055-.34 1.902-1.019 2.543-.68.64-1.571.961-2.672.961-1.11 0-2.008-.32-2.695-.96-.68-.65-1.02-1.52-1.02-2.614v-.832Zm2.25.902c0 .469.133.848.398 1.137.274.281.629.422 1.067.422.437 0 .785-.145 1.043-.434.258-.289.386-.676.386-1.16v-.867c0-.469-.128-.848-.386-1.137-.258-.289-.614-.434-1.067-.434-.429 0-.777.145-1.043.434-.265.281-.398.676-.398 1.184v.855Zm5.906 8.695c0-1.054.344-1.902 1.031-2.543.688-.648 1.579-.972 2.672-.972 1.11 0 2.004.32 2.684.96.687.633 1.031 1.508 1.031 2.626v.844c0 1.046-.336 1.894-1.008 2.542-.672.641-1.566.961-2.683.961-1.125 0-2.028-.324-2.707-.972-.68-.649-1.02-1.508-1.02-2.578v-.868Zm2.25.915c0 .43.141.796.422 1.101.281.305.633.457 1.055.457.953 0 1.429-.527 1.429-1.582v-.89c0-.47-.132-.844-.398-1.126-.266-.289-.617-.433-1.055-.433-.437 0-.789.144-1.054.433-.266.282-.399.668-.399 1.16v.88Zm-6.023 1.992-1.653-.891 8.332-13.336 1.653.89-8.332 13.337Z"/></g><g opacity=".82" fill="#000"><path d="M47.176 54h-2.262v-7.887h-8.602V54h-2.25V36.937h2.25v7.336h8.602v-7.336h2.262V54ZM58.66 52.746c-.844.992-2.082 1.488-3.715 1.488-1.351 0-2.383-.39-3.093-1.172-.704-.789-1.059-1.953-1.067-3.492v-8.25h2.168v8.192c0 1.922.781 2.883 2.344 2.883 1.656 0 2.758-.618 3.305-1.852V41.32h2.168V54h-2.063l-.047-1.254ZM66.113 41.32l.059 1.407c.93-1.094 2.184-1.641 3.762-1.641 1.773 0 2.98.68 3.62 2.039a4.82 4.82 0 0 1 1.641-1.477c.68-.375 1.48-.562 2.403-.562 2.78 0 4.195 1.473 4.242 4.418V54h-2.168v-8.367c0-.906-.207-1.582-.621-2.028-.414-.453-1.11-.68-2.086-.68-.805 0-1.473.243-2.004.727-.531.477-.84 1.121-.926 1.934V54h-2.18v-8.309c0-1.843-.902-2.765-2.707-2.765-1.421 0-2.394.605-2.917 1.816V54h-2.168V41.32h2.05ZM87.477 54h-2.168V41.32h2.168V54Zm-2.344-16.043c0-.352.105-.648.316-.89.219-.243.54-.364.961-.364.422 0 .742.121.961.363.219.243.328.54.328.891 0 .352-.11.645-.328.879-.219.234-.539.352-.96.352-.423 0-.743-.118-.962-.352-.21-.234-.316-.527-.316-.879ZM90.43 47.555c0-1.946.46-3.508 1.382-4.688.922-1.187 2.13-1.781 3.622-1.781 1.484 0 2.66.508 3.527 1.523V36h2.168v18h-1.992l-.106-1.36c-.867 1.063-2.074 1.594-3.62 1.594-1.47 0-2.669-.601-3.599-1.804-.921-1.203-1.382-2.774-1.382-4.711v-.164Zm2.168.246c0 1.437.296 2.562.89 3.375.594.812 1.414 1.218 2.461 1.218 1.375 0 2.38-.617 3.012-1.851v-5.824c-.648-1.196-1.645-1.793-2.988-1.793-1.063 0-1.891.41-2.485 1.23-.594.82-.89 2.035-.89 3.645ZM106.859 54h-2.168V41.32h2.168V54Zm-2.343-16.043c0-.352.105-.648.316-.89.219-.243.539-.364.961-.364.422 0 .742.121.961.363.219.243.328.54.328.891 0 .352-.109.645-.328.879-.219.234-.539.352-.961.352-.422 0-.742-.118-.961-.352-.211-.234-.316-.527-.316-.879ZM113.281 38.25v3.07h2.367v1.676h-2.367v7.863c0 .508.106.891.317 1.149.211.25.57.375 1.078.375.25 0 .594-.047 1.031-.14V54a6.285 6.285 0 0 1-1.664.234c-.969 0-1.699-.293-2.191-.879-.493-.585-.739-1.417-.739-2.496v-7.863h-2.308V41.32h2.308v-3.07h2.168ZM122.34 50.824l2.953-9.504h2.32l-5.097 14.637c-.789 2.11-2.043 3.164-3.762 3.164l-.41-.035-.809-.152v-1.758l.586.047c.734 0 1.305-.149 1.711-.446.414-.297.754-.84 1.02-1.629l.48-1.289-4.523-12.539h2.367l3.164 9.504Z"/></g><path d="M46 113h69v2H46v-2ZM46 117h69v2H46v-2ZM46 121h69v2H46v-2ZM46 125h69v2H46v-2ZM46 129h69v2H46v-2ZM46 133h69v2H46v-2ZM46 137h69v2H46v-2ZM46 141h69v2H46v-2ZM46 145h69v2H46v-2ZM46 149h69v2H46v-2ZM46 153h69v2H46v-2ZM46 157h69v2H46v-2ZM46 161h69v2H46v-2ZM46 165h69v2H46v-2ZM46 169h69v2H46v-2ZM46 173h69v2H46v-2ZM46 177h69v2H46v-2ZM46 181h69v2H46v-2ZM46 185h69v2H46v-2ZM46 189h69v2H46v-2ZM46 193h69v2H46v-2ZM46 197h69v2H46v-2ZM46 201h69v2H46v-2ZM46 205h69v2H46v-2ZM46 209h69v2H46v-2Z" fill="#E0E1E2"/><path d="M46 213h69v2H46v-2ZM46 217h69v2H46v-2ZM46 221h69v2H46v-2ZM46 225h69v2H46v-2ZM46 229h69v2H46v-2ZM46 233h69v2H46v-2ZM46 237h69v2H46v-2ZM46 241h69v2H46v-2ZM46 245h69v2H46v-2ZM46 249h69v2H46v-2ZM46 253h69v2H46v-2ZM46 257h69v2H46v-2ZM46 261h69v2H46v-2ZM46 265h69v2H46v-2ZM46 269h69v2H46v-2ZM46 273h69v2H46v-2ZM46 277h69v2H46v-2Z" fill="#2A7DEC"/></svg>
